packages/ui-icons/svg/Line/text-superscript.svg

<svg viewBox="0 0 1920 1920" version="1.1" xmlns="http://www.w3.org/2000/svg">
    <path d="M1231.31354,481.451526 L1231.31354,618.264141 L684.063075,618.264141 L684.063075,1849.57768 L547.25046,1849.57768 L547.25046,618.264141 L0,618.264141 L0,481.451526 L1231.31354,481.451526 Z M1675.88613,71 C1774.52802,71 1865.91885,131.334363 1903.13188,221.220251 C1939.93448,310.148451 1915.71864,409.611222 1838.2827,487.047162 C1747.98638,577.343488 1625.26546,688.024894 1549.88171,755.063075 L1549.88171,755.063075 L1915.3082,755.063075 L1915.3082,891.87569 L1436.46405,891.87569 C1398.70377,891.87569 1368.05774,861.229665 1368.05774,823.469383 L1368.05774,823.469383 L1368.05774,763.545457 C1368.05774,743.844441 1376.67694,724.9643 1391.58951,711.967101 C1393.77852,710.051725 1608.02707,523.849756 1741.55618,390.320644 C1780.13734,351.739486 1792.31366,311.379765 1776.71703,273.48267 C1760.70995,234.7647 1719.25573,207.812615 1675.88613,207.812615 C1575.73929,207.812615 1492.00997,316.305019 1491.05229,317.536332 L1491.05229,317.536332 L1381.73901,235.175138 C1386.80107,228.47132 1506.92255,71 1675.88613,71 Z" stroke="none" stroke-width="1" fill-rule="evenodd"/>
</svg>

<svg viewBox="0 0 1920 1920" version="1.1" xmlns="http://www.w3.org/2000/svg">
    <path d="M0 481.452h1231.314v136.812h-547.25v1231.314H547.25V618.264H0V481.452zm1838.283 5.595c-90.297 90.296-213.018 200.978-288.401 268.016h365.426v136.813h-478.844c-37.76 0-68.406-30.646-68.406-68.407v-59.924c0-19.7 8.619-38.58 23.532-51.578 2.189-1.915 216.437-188.117 349.966-321.646 38.581-38.582 50.758-78.941 35.161-116.838-16.007-38.718-57.461-65.67-100.83-65.67-100.148 0-183.877 108.492-184.835 109.723l-109.313-82.36C1386.801 228.47 1506.923 71 1675.886 71c98.642 0 190.033 60.334 227.246 150.22 36.802 88.928 12.587 188.391-64.85 265.827z" stroke="none" stroke-width="1" fill-rule="evenodd"/>
</svg>
